X: 51
T:Kitchen Girl
M:4/4
L:1/8
Q:90
C:New England
R:Reel
K:A
"A"[a4c4] "G"[g4B4]|"A"e-fed c2 cd|e-def g-aba|"G"g2 e2 e2 eg|!
"A"[a4c4] "G"[g4B4]|"A"e-fed c-def|"G"g2d2 efed|[1"A"c2 A2A2 e-g:|[2"A"c
2 A2 A2 [A2A2]||!
"Am"AB=cA "Em"B-AGB|"Am"A-BAG E-DEG|A2 AA [=c2e2][d2e2]|"E"[e3e3] g e2 [
A2A2]|!
"Am"A-B=cA "Em"B-AGB|"Am"A-BAG E-GAB|=c2 A2 "G"B-A G2|[1"Am"A3 B-A2 [A2A
2]:|[2"Am"A3 B-A4|]
